data/icons/scalable/actions/department-symbolic.svg

<svg width="16" height="16" viewBox="0 0 16 16" fill="none" xmlns="http://www.w3.org/2000/svg">
<g clip-path="url(#clip0_2_2)">
<path d="M3 16C1.35156 16 0 14.6484 0 13C0 11.7031 0.839844 10.5898 2 10.1758V9.5C2 8.13281 3.13281 7 4.5 7H7V5.82422C5.83984 5.41016 5 4.29688 5 3C5 1.35156 6.35156 0 8 0C9.64844 0 11 1.35156 11 3C11 4.29688 10.1602 5.41016 9 5.82422V7H11.5C12.8672 7 14 8.13281 14 9.5V10.1758C15.1602 10.5898 16 11.7031 16 13C16 14.6484 14.6484 16 13 16C11.3516 16 10 14.6484 10 13C10 11.7031 10.8398 10.5898 12 10.1758V9.5C12 9.21094 11.7891 9 11.5 9H4.5C4.21094 9 4 9.21094 4 9.5V10.1758C5.16016 10.5898 6 11.7031 6 13C6 14.6484 4.64844 16 3 16ZM3 14.5C3.82812 14.5 4.5 13.8281 4.5 13C4.5 12.1719 3.82812 11.5 3 11.5C2.17188 11.5 1.5 12.1719 1.5 13C1.5 13.8281 2.17188 14.5 3 14.5ZM13 14.5C13.8281 14.5 14.5 13.8281 14.5 13C14.5 12.1719 13.8281 11.5 13 11.5C12.1719 11.5 11.5 12.1719 11.5 13C11.5 13.8281 12.1719 14.5 13 14.5ZM8 4.5C8.82812 4.5 9.5 3.82812 9.5 3C9.5 2.17188 8.82812 1.5 8 1.5C7.17188 1.5 6.5 2.17188 6.5 3C6.5 3.82812 7.17188 4.5 8 4.5Z" fill="#222222"/>
</g>
<defs>
<clipPath id="clip0_2_2">
<rect width="16" height="16" fill="white" transform="matrix(1 0 0 -1 0 16)"/>
</clipPath>
</defs>
</svg>

<svg xmlns="http://www.w3.org/2000/svg" width="16" height="16" fill="none" viewBox="0 0 16 16"><g clip-path="url(#a)"><path fill="#222" d="M3 16a3.01 3.01 0 0 1-3-3c0-1.297.84-2.41 2-2.824V9.5C2 8.133 3.133 7 4.5 7H7V5.824A3.01 3.01 0 0 1 5 3c0-1.648 1.352-3 3-3s3 1.352 3 3c0 1.297-.84 2.41-2 2.824V7h2.5C12.867 7 14 8.133 14 9.5v.676c1.16.414 2 1.527 2 2.824 0 1.648-1.352 3-3 3a3.01 3.01 0 0 1-3-3c0-1.297.84-2.41 2-2.824V9.5c0-.29-.21-.5-.5-.5h-7c-.29 0-.5.21-.5.5v.676c1.16.414 2 1.527 2 2.824 0 1.648-1.352 3-3 3m0-1.5a1.5 1.5 0 1 0 0-3 1.5 1.5 0 0 0 0 3m10 0a1.5 1.5 0 1 0 0-3 1.5 1.5 0 0 0 0 3m-5-10a1.5 1.5 0 1 0 0-3 1.5 1.5 0 0 0 0 3"/></g><defs><clipPath id="a"><path fill="#fff" d="M0 16h16V0H0z"/></clipPath></defs></svg>
